X: 12
T:The Punch in the Dark
C:Gerry O'Connor
D:Sean Smyth : Blue Fiddle
M:C
L:1/8
K:F#minor
B2 Bd cBdc| BdcA FEFB| dcBd cBdB| caag afec|
B2 Bd cBdc| BdcA ~F2 FD| DE ~E2 ABcA|1 caag afec:|2 caag aece||
|:eaag aece| ~a2 ae gabg| ga ~a2 aece| dcBd cAce|
eaag aece| ~a2 ae gabg| ga ~a2 aece|1 dcBd cace:|2 dcBd cAdc ||
